packages/astro-components-stencil/src/icons/trending-down.svg

<svg width="24" height="24" viewBox="0 0 24 24" fill="none" xmlns="http://www.w3.org/2000/svg">
<path d="M16.85 17.15L18.29 15.71L13.41 10.83L10.12 14.12C9.72998 14.51 9.09998 14.51 8.70998 14.12L2.70998 8.11C2.31998 7.72 2.31998 7.09 2.70998 6.7C3.09998 6.31 3.72998 6.31 4.11998 6.7L9.40998 12L12.7 8.71C13.09 8.32 13.72 8.32 14.11 8.71L19.7 14.29L21.14 12.85C21.45 12.54 21.99 12.76 21.99 13.2V17.49C21.99 17.77 21.77 17.99 21.49 17.99H17.2C16.76 18 16.54 17.46 16.85 17.15Z" fill="black"/>
</svg>

<svg xmlns="http://www.w3.org/2000/svg" viewBox="0 0 24 24"><g xmlns="http://www.w3.org/2000/svg" id="trending-down" fill-rule="nonzero">
            <path d="M16.85 17.15l1.44-1.44-4.88-4.88-3.29 3.29a.996.996 0 01-1.41 0l-6-6.01A.996.996 0 114.12 6.7L9.41 12l3.29-3.29a.996.996 0 011.41 0l5.59 5.58 1.44-1.44a.5.5 0 01.85.35v4.29c0 .28-.22.5-.5.5H17.2c-.44.01-.66-.53-.35-.84z"/>
        </g></svg>
